app/images/dist/icons-3.svg

<svg width="100%" viewBox="0 0 196 196"  viewBox="0 0 196 196" fill="none" xmlns="http://www.w3.org/2000/svg">
<rect x="15" y="15" width="166" height="166" rx="83" fill="#F8FAFF"/>
<path d="M132.571 94.9769C130.298 92.705 127.277 91.4538 124.064 91.4538H122.933C122.944 91.1562 122.95 90.8604 122.95 90.5684C122.95 76.8113 111.757 65.619 98 65.619C86.9707 65.619 77.2554 72.8815 74.1048 83.3763C72.506 83.5669 70.9563 83.9931 69.488 84.6472C68.9249 84.8979 68.6717 85.5577 68.9225 86.1206C69.1734 86.6837 69.8332 86.9372 70.396 86.6861C71.8658 86.0315 73.4311 85.6419 75.0484 85.5284C75.524 85.4951 75.9258 85.1632 76.0487 84.7025C78.6927 74.7806 87.7195 67.8512 98 67.8512C110.526 67.8512 120.717 78.0421 120.717 90.5684C120.717 91.1916 120.69 91.8337 120.636 92.4771C120.611 92.7881 120.716 93.096 120.927 93.3256C121.139 93.5554 121.437 93.686 121.749 93.686H124.064C126.681 93.686 129.142 94.7052 130.993 96.5552C132.844 98.4073 133.863 100.868 133.863 103.485C133.863 108.889 129.467 113.286 124.064 113.286H116.128C116.161 112.833 116.179 112.377 116.179 111.916C116.179 104.284 111.451 97.7364 104.771 95.0456V89.7394L107.667 86.8428C108.299 87.208 109.031 87.4183 109.812 87.4183C112.183 87.4183 114.112 85.4894 114.112 83.1183C114.112 80.7472 112.183 78.8183 109.812 78.8183C107.441 78.8183 105.512 80.7473 105.512 83.1183C105.512 83.8998 105.723 84.6325 106.088 85.2649L102.865 88.4879C102.656 88.6972 102.538 88.9811 102.538 89.2771V94.3104C101.434 94.0256 100.29 93.8436 99.1158 93.7722V82.2727C100.947 81.7799 102.3 80.1055 102.3 78.1205C102.3 75.7495 100.371 73.8205 97.9997 73.8205C95.6287 73.8205 93.6997 75.7495 93.6997 78.1205C93.6997 80.1055 95.0521 81.7799 96.8836 82.2727V93.7722C95.7097 93.8436 94.5651 94.0256 93.461 94.3104V89.2771C93.461 88.9811 93.3435 88.6972 93.1341 88.4879L89.9109 85.2647C90.277 84.6324 90.4877 83.8994 90.4877 83.1177C90.4877 80.7467 88.5586 78.8177 86.1877 78.8177C83.8167 78.8177 81.8877 80.7467 81.8877 83.1177C81.8877 85.4886 83.8167 87.4177 86.1877 87.4177C86.9683 87.4177 87.7003 87.2075 88.332 86.8424L91.2289 89.7393V95.0455C84.5485 97.7363 79.8205 104.284 79.8205 111.916C79.8205 112.377 79.8381 112.833 79.8719 113.286H76.0327C72.3205 113.286 68.8307 111.84 66.2061 109.215C63.582 106.59 62.1369 103.101 62.1369 99.3898C62.1369 95.3654 63.8801 91.5428 66.9195 88.9021C67.3848 88.4977 67.4343 87.7928 67.0301 87.3275C66.6258 86.8623 65.921 86.8126 65.4555 87.2169C61.928 90.282 59.9048 94.7187 59.9048 99.3898C59.9048 103.697 61.582 107.746 64.6276 110.794C67.674 113.84 71.7244 115.518 76.0327 115.518H80.1799C81.8558 123.822 89.2088 130.095 98 130.095C106.791 130.095 114.144 123.822 115.82 115.518H124.064C130.698 115.518 136.095 110.12 136.095 103.485C136.095 100.272 134.844 97.251 132.571 94.9769ZM109.812 81.0505C110.952 81.0505 111.88 81.9783 111.88 83.1184C111.88 84.2586 110.952 85.1863 109.812 85.1863C108.672 85.1863 107.744 84.2587 107.744 83.1184C107.744 81.9781 108.672 81.0505 109.812 81.0505ZM84.1201 83.1178C84.1201 81.9776 85.0478 81.05 86.188 81.05C87.3282 81.05 88.2558 81.9776 88.2558 83.1178C88.2558 84.258 87.3282 85.1857 86.188 85.1857C85.0478 85.1857 84.1201 84.258 84.1201 83.1178ZM95.9322 78.1206C95.9322 76.9805 96.8598 76.0528 98 76.0528C99.1402 76.0528 100.068 76.9805 100.068 78.1206C100.068 79.2608 99.1402 80.1885 98 80.1885C96.8598 80.1885 95.9322 79.2608 95.9322 78.1206ZM98 127.863C89.2069 127.863 82.053 120.709 82.053 111.916C82.053 103.123 89.2069 95.9692 98 95.9692C106.793 95.9692 113.947 103.123 113.947 111.916C113.947 120.709 106.793 127.863 98 127.863Z" fill="#273B98"/>
<path d="M98 98.1235C90.3953 98.1235 84.2084 104.311 84.2084 111.917C84.2084 119.521 90.3953 125.709 98 125.709C100.744 125.709 103.397 124.903 105.67 123.38C106.182 123.036 106.319 122.343 105.976 121.831C105.633 121.319 104.94 121.182 104.428 121.525C102.523 122.801 100.3 123.476 97.9999 123.476C91.6259 123.476 86.4404 118.29 86.4404 111.917C86.4404 105.542 91.6259 100.356 97.9999 100.356C104.374 100.356 109.56 105.542 109.56 111.917C109.56 114.39 108.79 116.748 107.333 118.737C106.969 119.234 107.077 119.932 107.574 120.296C108.071 120.66 108.77 120.553 109.134 120.055C110.872 117.681 111.791 114.867 111.791 111.917C111.792 104.311 105.605 98.1235 98 98.1235Z" fill="#273B98"/>
<path d="M99.3189 121.456C99.9353 121.456 100.435 120.956 100.435 120.339V118.627H100.452C102.78 118.627 104.675 116.733 104.675 114.404C104.675 112.781 103.754 111.37 102.408 110.663C102.735 110.121 102.923 109.487 102.923 108.809C102.923 107.211 101.877 105.854 100.435 105.383V103.493C100.435 102.876 99.9353 102.376 99.3189 102.376C98.7025 102.376 98.2028 102.876 98.2028 103.493V105.205H97.1582V103.493C97.1582 102.876 96.6584 102.376 96.0421 102.376C95.4257 102.376 94.926 102.876 94.926 103.493V105.205H94.7678H92.8302C92.2138 105.205 91.7141 105.705 91.7141 106.321C91.7141 106.937 92.2138 107.437 92.8302 107.437H93.6517V116.395H92.8302C92.2138 116.395 91.7141 116.895 91.7141 117.511C91.7141 118.128 92.2138 118.627 92.8302 118.627H94.7678H94.926V120.339C94.926 120.956 95.4257 121.456 96.0421 121.456C96.6584 121.456 97.1582 120.956 97.1582 120.339V118.627H98.2028V120.339C98.2028 120.956 98.7025 121.456 99.3189 121.456ZM100.452 116.395H95.8839V112.413H99.3189H100.452C101.549 112.413 102.443 113.306 102.443 114.404C102.443 115.502 101.55 116.395 100.452 116.395ZM99.3189 110.181H95.8839V107.437H99.3189C100.075 107.437 100.691 108.053 100.691 108.809C100.691 109.565 100.075 110.181 99.3189 110.181Z" fill="#273B98"/>
<rect x="15" y="15" width="166" height="166" rx="83" stroke="#EAEFFF" stroke-opacity="0.21" stroke-width="29"/>
</svg>

<svg width="100%" viewBox="0 0 196 196"  fill="none" xmlns="http://www.w3.org/2000/svg"><rect x="15" y="15" width="166" height="166" rx="83" fill="#F8FAFF"/><path d="M132.571 94.977a11.955 11.955 0 0 0-8.507-3.523h-1.131c.011-.298.017-.594.017-.886 0-13.757-11.193-24.949-24.95-24.949-11.03 0-20.745 7.263-23.895 17.757-1.599.19-3.149.617-4.617 1.271a1.116 1.116 0 1 0 .908 2.04 13.77 13.77 0 0 1 4.652-1.159 1.116 1.116 0 0 0 1-.826C78.694 74.781 87.72 67.852 98 67.852c12.526 0 22.717 10.19 22.717 22.716 0 .624-.027 1.266-.081 1.91a1.118 1.118 0 0 0 1.113 1.209h2.315a9.738 9.738 0 0 1 6.929 2.868 9.739 9.739 0 0 1 2.87 6.93c0 5.404-4.396 9.801-9.799 9.801h-7.936c.033-.453.051-.909.051-1.37 0-7.632-4.728-14.18-11.408-16.87v-5.307l2.896-2.896a4.273 4.273 0 0 0 2.145.575c2.371 0 4.3-1.929 4.3-4.3 0-2.37-1.929-4.3-4.3-4.3a4.305 4.305 0 0 0-4.3 4.3c0 .782.211 1.514.576 2.147l-3.223 3.223c-.209.21-.327.493-.327.79v5.032a18.083 18.083 0 0 0-3.422-.538v-11.5a4.308 4.308 0 0 0 3.184-4.151c0-2.371-1.929-4.3-4.3-4.3a4.305 4.305 0 0 0-4.3 4.3 4.307 4.307 0 0 0 3.184 4.152v11.5a18.093 18.093 0 0 0-3.423.537v-5.033c0-.296-.117-.58-.327-.79l-3.223-3.222a4.272 4.272 0 0 0 .577-2.147c0-2.371-1.93-4.3-4.3-4.3a4.305 4.305 0 0 0-4.3 4.3c0 2.37 1.929 4.3 4.3 4.3.78 0 1.512-.21 2.144-.576l2.897 2.897v5.306c-6.68 2.691-11.409 9.239-11.409 16.871 0 .461.018.917.052 1.37h-3.84a13.805 13.805 0 0 1-9.826-4.071 13.806 13.806 0 0 1-4.07-9.825 13.89 13.89 0 0 1 4.783-10.488 1.116 1.116 0 0 0-1.463-1.685 16.12 16.12 0 0 0-5.551 12.173c0 4.307 1.677 8.356 4.723 11.404a16.025 16.025 0 0 0 11.405 4.724h4.147c1.676 8.304 9.029 14.577 17.82 14.577s16.144-6.273 17.82-14.577h8.244c6.634 0 12.031-5.398 12.031-12.033 0-3.213-1.251-6.234-3.524-8.508ZM109.812 81.05a2.07 2.07 0 0 1 2.068 2.068 2.07 2.07 0 0 1-2.068 2.068 2.07 2.07 0 0 1-2.068-2.068 2.07 2.07 0 0 1 2.068-2.067ZM84.12 83.118a2.07 2.07 0 0 1 2.068-2.068 2.07 2.07 0 0 1 2.068 2.068 2.07 2.07 0 0 1-2.068 2.068 2.07 2.07 0 0 1-2.068-2.068Zm11.812-4.997A2.07 2.07 0 0 1 98 76.053a2.07 2.07 0 0 1 2.068 2.068A2.07 2.07 0 0 1 98 80.189a2.07 2.07 0 0 1-2.068-2.068ZM98 127.863c-8.793 0-15.947-7.154-15.947-15.947S89.207 95.969 98 95.969s15.947 7.154 15.947 15.947-7.154 15.947-15.947 15.947Z" fill="#273B98"/><path d="M98 98.124c-7.605 0-13.792 6.187-13.792 13.793 0 7.604 6.187 13.792 13.792 13.792 2.744 0 5.397-.806 7.67-2.329a1.117 1.117 0 0 0-1.242-1.855A11.512 11.512 0 0 1 98 123.476c-6.374 0-11.56-5.186-11.56-11.559 0-6.375 5.186-11.561 11.56-11.561 6.374 0 11.56 5.186 11.56 11.561 0 2.473-.77 4.831-2.227 6.82a1.115 1.115 0 1 0 1.801 1.318 13.686 13.686 0 0 0 2.657-8.138c.001-7.606-6.186-13.793-13.791-13.793Z" fill="#273B98"/><path d="M99.319 121.456c.616 0 1.116-.5 1.116-1.117v-1.712h.017a4.228 4.228 0 0 0 4.223-4.223 4.227 4.227 0 0 0-2.267-3.741 3.576 3.576 0 0 0 .515-1.854 3.61 3.61 0 0 0-2.488-3.426v-1.89a1.116 1.116 0 1 0-2.232 0v1.712h-1.045v-1.712a1.117 1.117 0 1 0-2.232 0v1.712H92.83a1.116 1.116 0 0 0 0 2.232h.822v8.958h-.822a1.116 1.116 0 0 0 0 2.232h2.096v1.712a1.116 1.116 0 1 0 2.232 0v-1.712h1.045v1.712c0 .617.5 1.117 1.116 1.117Zm1.133-5.061h-4.568v-3.982h4.568c1.097 0 1.991.893 1.991 1.991a1.993 1.993 0 0 1-1.991 1.991Zm-1.133-6.214h-3.435v-2.744h3.435c.756 0 1.372.616 1.372 1.372 0 .756-.616 1.372-1.372 1.372Z" fill="#273B98"/><rect x="15" y="15" width="166" height="166" rx="83" stroke="#EAEFFF" stroke-opacity=".21" stroke-width="29"/></svg>
